img/services/seo/seo.svg

<svg xmlns:dc="http://purl.org/dc/elements/1.1/" xmlns:cc="http://creativecommons.org/ns#" xmlns:rdf="http://www.w3.org/1999/02/22-rdf-syntax-ns#" xmlns:svg="http://www.w3.org/2000/svg" xmlns="http://www.w3.org/2000/svg" xmlns:sodipodi="http://sodipodi.sourceforge.net/DTD/sodipodi-0.dtd" xmlns:inkscape="http://www.inkscape.org/namespaces/inkscape" version="1.1" x="0px" y="0px" viewBox="0 0 100 125"><g transform="translate(0,-952.36218)"><path style="font-size:medium;font-style:normal;font-variant:normal;font-weight:normal;font-stretch:normal;text-indent:0;text-align:start;text-decoration:none;line-height:normal;letter-spacing:normal;word-spacing:normal;text-transform:none;direction:ltr;block-progression:tb;writing-mode:lr-tb;text-anchor:start;baseline-shift:baseline;opacity:1;color:#000000;fill:#000000;fill-opacity:1;stroke:none;stroke-width:2;marker:none;visibility:visible;display:inline;overflow:visible;enable-background:accumulate;font-family:Sans;-inkscape-font-specification:Sans" d="M 7.8125 17 A 1.0001 1.0001 0 0 0 7 18 L 7 62 A 1.0001 1.0001 0 0 0 8 63 L 41.71875 63 L 37.21875 81 L 28 81 A 1.0000999 1.0000999 0 0 0 27.8125 81 A 1.0043849 1.0043849 0 0 0 28 83 L 72 83 A 1.0000999 1.0000999 0 1 0 72 81 L 62.78125 81 L 58.28125 63 L 92 63 A 1.0001 1.0001 0 0 0 93 62 L 93 18 A 1.0001 1.0001 0 0 0 92 17 L 8 17 A 1.0001 1.0001 0 0 0 7.8125 17 z M 9 19 L 91 19 L 91 61 L 9 61 L 9 19 z M 65.8125 27 A 1.0043849 1.0043849 0 0 0 66 29 L 69.46875 29 L 55.03125 42.59375 L 45.71875 33.28125 C 45.338709 32.90496 44.644607 32.92007 44.28125 33.3125 L 27.28125 51.3125 C 26.855043 51.6735 26.846349 52.4263 27.25 52.8125 C 27.653656 53.1986 28.376982 53.1293 28.71875 52.6875 L 45.03125 35.4375 L 54.28125 44.6875 C 54.642752 45.06129 55.309776 45.07614 55.6875 44.71875 L 71 30.3125 L 71 34 A 1.0001 1.0001 0 1 0 73 34 L 73 28 A 1.0001 1.0001 0 0 0 72 27 L 66 27 A 1.0001 1.0001 0 0 0 65.8125 27 z M 43.78125 63 L 56.21875 63 L 60.71875 81 L 39.28125 81 L 43.78125 63 z " transform="translate(0,952.36218)"/></g></svg>

<svg xmlns="http://www.w3.org/2000/svg" viewBox="0 0 100 125"><path style="text-indent:0;text-align:start;line-height:normal;text-transform:none;block-progression:tb;marker:none;-inkscape-font-specification:Sans" d="M7.813 17A1 1 0 0 0 7 18v44a1 1 0 0 0 1 1h33.719l-4.5 18H28a1 1 0 0 0-.188 0A1.004 1.004 0 0 0 28 83h44a1 1 0 1 0 0-2h-9.219l-4.5-18H92a1 1 0 0 0 1-1V18a1 1 0 0 0-1-1H8a1 1 0 0 0-.188 0zM9 19h82v42H9V19zm56.813 8A1.004 1.004 0 0 0 66 29h3.469L55.03 42.594l-9.31-9.314c-.38-.376-1.074-.36-1.438.032l-17 18c-.426.36-.435 1.113-.031 1.5.404.386 1.127.316 1.469-.126l16.312-17.25 9.25 9.25c.362.374 1.029.39 1.407.032L71 30.312V34a1 1 0 1 0 2 0v-6a1 1 0 0 0-1-1h-6a1 1 0 0 0-.188 0zM43.78 63h12.44l4.5 18H39.28l4.5-18z" font-weight="400" color="#000" overflow="visible" font-family="Sans"/></svg>
